X:1
T:Reel des capuchons
L:1/8
M:6/8
D:Victor 263909 (78 RPM), Joseph Allard (1933)
F: http://www.collectionscanada.ca/obj/m2/f7/13118.mp3
Z:Transcribed by Andrew Kuntz
K:D
faa afa|gfe d2e|faf ece|fdf efg|
faa afa|gfe d2e|faf ece|1fdd d2g:|2[M:9/8] fdd d2F A2G||
|:[M:6/8] FAd fed|{cd}cBc edc|dfe dcB|A3G3|
FAd fed|cBc edc|1[M:9/8] dfe d2F A2G:|2[M:6/8] dfe d2e||

